!!!!SEGMENT: pl-kk--kk-i-40--011-004_asola-giovanni-matteo--missa-primi-toni-agnus-dei.krn
!!!cenid: 16xx:1322
!!!COM: Asola, Giovanni Matteo
!!!COM-rismid: pe20000387
!!!CDT: <=1532-1609/10/01
!!!CNT: Italian
!!!OPR: Missa primi toni
!!!OTL: Agnus Dei
!!!OMV: 004
!!!PDT:
!!!AGN: Sacred; Mass
!!!SMS-siglum: PL-Kk
!!!SMS-shelfmark: Kk.I.40
!!!SMS-shelfwork: 011-004 M
!!!SMS-variant:
!!!SMS-altvar:
!!!NIFC-rismid: 1001154533
!!!URL-scan: http://repozytorium.nifc.pl/skany/pl-kk-nut--i-40
!!!ONB-nifc: UWAGA: części Mszy: 1. Kyrie, 2. Et in terra, 3. Sanctus, 4. Agnus Dei. Skan 0014-0016
**kern	**text
*Iempty	*
*I"Baſso Ripieno.	*
*clefF4	*
*k[]	*
*d:	*
*M2/1	*
*met(C|)	*
=1-	=1-
00r	.
=2-	=2-
.	.
=3-	=3-
00r	.
=4-	=4-
.	.
=5-	=5-
!LO:TX:t=P:problem:kreska pseudotaktowa	!
00r	.
=6-	=6-
.	.
=7-	=7-
1D	A-
!LO:TX:t=P:problem:kreska pseudotaktowa	!
1F	gnus
=8-	=8-
1G	De-
!LO:TX:t=P:problem:kreska pseudotaktowa	!
!LO:TX:t=P:problem:oddech jako rozdzielacz słów:global	!
1A,<	-i
=9-	=9-
*	*ij
1D	A-
!LO:TX:t=P:problem:kreska pseudotaktowa	!
1AA	-gnus
=10-	=10-
1D	De-
!LO:TX:t=P:problem:kreska pseudotaktowa	!
1C,<	-i
*	*Xij
=11-	=11-
1.F	A-
*2\right	*
!LO:TX:t=P:problem:kreska pseudotaktowa	!
2G\	-gnus
=12-	=12-
2.A\	De-
!LO:TX:t=P:problem:kreska pseudotaktowa	!
4G\	.
2F\	.
4E\	.
4D\	.
=13-	=13-
1E	.
!LO:TX:t=P:problem:kreska pseudotaktowa	!
1D,<	-i
=14-	=14-
2r	.
*	*ij
1D	A-
2GG/	-gnus
=15-	=15-
*lig	*
1D	De-
1AA	.
*Xlig	*
=16-	=16-
!LO:TX:t=P:problem:kreska pseudotaktowa	!
1D	-i
*	*Xij
1r	.
=17-	=17-
2r	.
2AA/	Qui
1D	tol-
=18-	=18-
2C/	-lis
!LO:TX:t=P:problem:kreska pseudotaktowa	!
2AA/	.
2.E\	pec-
4D/	-ca-
=19-	=19-
2C/	-ta
!LO:TX:t=P:problem:kreska pseudotaktowa	!
2D/	.
!LO:LB:g=original	!
1BB	mun-
=20-	=20-
!LO:TX:t=P:problem:kreska pseudotaktowa	!
0AA	-di
=21-	=21-
00r	.
=22-	=22-
.	.
=23-	=23-
!LO:TX:t=P:problem:kreska pseudotaktowa	!
1r	.
2.E\	mi-
4E\	-ſe-
=24-	=24-
2F\	-re-
2F\	-re
1E	no-
=25-	=25-
!LO:TX:t=P:problem:kreska pseudotaktowa	!
1AA	-bis
1r	.
=26-	=26-
*	*ij
2.A\	mi-
4A\	-ſe-
2B-X\	-re-
2B-\	-re
=27-	=27-
1A	no-
!LO:TX:t=P:problem:kreska pseudotaktowa	!
1D	-bis
*	*Xij
=28-	=28-
2.AA/	mi-
4AA/	-ſe-
2BB-X/	-re-
2BB-/	-re
=29-	=29-
1AA	no-
!LO:TX:t=P:problem:kreska pseudotaktowa	!
1D	-bis
=30-	=30-
1r	.
*	*ij
2.D\	mi-
4D\	-ſe-
=31-	=31-
2D\	-re-
!LO:TX:t=P:problem:kreska pseudotaktowa	!
2D\	-re
1G	no-
=32-	=32-
2D,<\	-bis
*	*Xij
1F	mi-
!LO:TX:t=P:problem:kreska pseudotaktowa	!
2C/	-ſe-
=33-	=33-
2D/	-re-
!LO:TX:t=P:problem:kreska pseudotaktowa	!
2AA/	-re
!LO:SIC:v:t=custos AA	!
!LO:TX:t=P:problem:kreska pseudotaktowa	!
1E	no-
=34-	=34-
!LO:LB:g=original	!
2AA,</	-bis
*	*ij
1D	mi-
2C/	-ſe-
=35-	=35-
2D\	-re-
2D\	-re
1AA	no-
=36-	=36-
0D;	-bis
*	*Xij
=37||-	=37||-
*M2/1	*
*met(C|)	*
!LO:TX:t=P:problem:kreska pseudotaktowa	!
00r	.
=38-	=38-
.	.
=39-	=39-
1AA	Ag-
!LO:TX:t=P:problem:kreska pseudotaktowa	!
1E	-nus
=40-	=40-
2C/	De-
1D	-i
2BBny/	Qui
=41-	=41-
!LO:TX:t=P:problem:kreska pseudotaktowa	!
1AA	tol-
2D,<\	-lis
1D\	pec-
=42-	=42-
.	.
2D\	-ca-
!LO:TX:t=P:problem:kreska pseudotaktowa	!
1D	-ta
=43-	=43-
1G	mun-
!LO:TX:t=P:problem:kreska pseudotaktowa	!
1D	-di
=44-	=44-
00r	.
=45-	=45-
.	.
=46-	=46-
2.A\	mi-
4A\	-ſe-
2G\	-re-
2A\	-re
=47-	=47-
1B-X	no-
!LO:TX:t=P:problem:kreska pseudotaktowa	!
1A	-bis
=48-	=48-
0D	mi-
=49-	=49-
!LO:TX:t=P:problem:kreska pseudotaktowa	!
1GG	-ſe-
!LO:LB:g=original	!
0C	-re-
=50-	=50-
.	.
1AA	-re
=51-	=51-
0D	no-
=52-	=52-
!LO:TX:a:B:t=Agnus 3tium Da Capo.	!
0AA;	-bis.
=-	=-
*-	*-
!!!RDF**kern: < = below
!!!RDF**kern: > = above
!!!AIN: 1 empty
!!!ENC: Marta Chmielewska
!!!END: 2021-08-03
!!!ENC: Tomasz Grochalski
!!!END: 2021-07-06
